_src/static/img/sprite/eye.svg

<svg width="16" height="10" viewBox="0 0 16 10" fill="none" xmlns="http://www.w3.org/2000/svg">
<path d="M8 0.231781C4.94303 0.231781 2.17081 1.90428 0.125192 4.62086C-0.0417306 4.84342 -0.0417306 5.15435 0.125192 5.37692C2.17081 8.09677 4.94303 9.76927 8 9.76927C11.057 9.76927 13.8292 8.09677 15.8748 5.38019C16.0417 5.15763 16.0417 4.84669 15.8748 4.62413C13.8292 1.90428 11.057 0.231781 8 0.231781ZM8.21929 8.35861C6.19004 8.48625 4.51427 6.81376 4.64191 4.78123C4.74665 3.10546 6.10494 1.74717 7.78071 1.64244C9.80996 1.51479 11.4857 3.18729 11.3581 5.21981C11.2501 6.89231 9.89179 8.2506 8.21929 8.35861ZM8.11783 6.80721C7.02465 6.87595 6.1213 5.97587 6.19331 4.8827C6.24895 3.97935 6.9821 3.24948 7.88545 3.19056C8.97862 3.12183 9.88197 4.0219 9.80996 5.11508C9.75105 6.0217 9.0179 6.75157 8.11783 6.80721Z" fill="#B397F2"/>
</svg>

<svg width="16" height="10" fill="none" xmlns="http://www.w3.org/2000/svg"><path d="M8 .232C4.943.232 2.17 1.904.125 4.62a.633.633 0 000 .756C2.171 8.097 4.943 9.769 8 9.769c3.057 0 5.83-1.672 7.875-4.389a.633.633 0 000-.756C13.829 1.904 11.057.232 8 .232zm.22 8.127A3.367 3.367 0 014.641 4.78 3.373 3.373 0 017.78 1.642a3.367 3.367 0 013.577 3.578A3.383 3.383 0 018.22 8.359zm-.102-1.552a1.81 1.81 0 01-1.925-1.924A1.82 1.82 0 017.885 3.19 1.81 1.81 0 019.81 5.115a1.82 1.82 0 01-1.692 1.692z" fill="#B397F2"/></svg>
